X:19
T: Monroe's Hornpipe
C: Bill Monroe
S: MandoZine TablEdit Archives
Z: TablEdited by John Bird for MandoZine
L: 1/8
Q: 460
M: 4/4
K: A
 |: "A"A,C EF "D"DE FD | "E"EG Bc "A"Ac eA | A,C EF "D"DE FD | "E"EG Bc "A"A2 A2 |
 A,C EF "D"DE FD | "E"EG Be "A"ce cA | A,C EF "D"DE FD |1 E"E"G Bc "A"A2 A2 :|2 E"E"G Bc "A"A2 A2 |
 "A"EF AB c2 cc | cB Ac BA FD | EF AB ce zA | cB AG "D"F2 FF | EF AB c2 cc | cB Ac BA FD |
 a2 ga "D"e2 c2 | "E"=c^c =c^c "A"A2 A2 | "A"EF AB c2 cc | cB Ac BA FD | EF AB ce zA |
 cB AG "D"F2 FF | EF AB c2 cc | cB Ac BA FD | a2 ga e2 c2 | =c^c =c^c A2 A2 |
